build/img/icon-inst.svg

<svg width="33" height="32" viewBox="0 0 33 32" fill="none" xmlns="http://www.w3.org/2000/svg">
<path d="M19.6582 16C19.6582 17.6914 18.2443 19.0625 16.5 19.0625C14.7557 19.0625 13.3418 17.6914 13.3418 16C13.3418 14.3086 14.7557 12.9375 16.5 12.9375C18.2443 12.9375 19.6582 14.3086 19.6582 16Z" fill="#C4B192"/>
<path d="M23.8858 10.5815C23.734 10.1826 23.4918 9.82153 23.1771 9.52515C22.8715 9.21997 22.4993 8.98511 22.0877 8.83789C21.7538 8.71216 21.2523 8.5625 20.3286 8.52173C19.3293 8.47754 19.0297 8.46802 16.4999 8.46802C13.9699 8.46802 13.6703 8.47729 12.6712 8.52148C11.7475 8.5625 11.2457 8.71216 10.9121 8.83789C10.5005 8.98511 10.1281 9.21997 9.82272 9.52515C9.508 9.82153 9.2658 10.1824 9.11373 10.5815C8.98407 10.9053 8.82973 11.3918 8.78769 12.2876C8.74212 13.2563 8.7323 13.5469 8.7323 16.0002C8.7323 18.4534 8.74212 18.7439 8.78769 19.7129C8.82973 20.6086 8.98407 21.095 9.11373 21.4187C9.2658 21.8179 9.50775 22.1787 9.82246 22.4751C10.1281 22.7803 10.5002 23.0151 10.9119 23.1624C11.2457 23.2883 11.7475 23.438 12.6712 23.4788C13.6703 23.523 13.9696 23.5322 16.4997 23.5322C19.0299 23.5322 19.3296 23.523 20.3283 23.4788C21.2521 23.438 21.7538 23.2883 22.0877 23.1624C22.914 22.8533 23.5671 22.22 23.8858 21.4187C24.0155 21.095 24.1698 20.6086 24.2121 19.7129C24.2577 18.7439 24.2673 18.4534 24.2673 16.0002C24.2673 13.5469 24.2577 13.2563 24.2121 12.2876C24.1701 11.3918 24.0157 10.9053 23.8858 10.5815ZM16.4999 20.7178C13.8128 20.7178 11.6345 18.6057 11.6345 16C11.6345 13.3943 13.8128 11.2822 16.4999 11.2822C19.1868 11.2822 21.3651 13.3943 21.3651 16C21.3651 18.6057 19.1868 20.7178 16.4999 20.7178ZM21.5575 12.1982C20.9296 12.1982 20.4205 11.7046 20.4205 11.0957C20.4205 10.4868 20.9296 9.99316 21.5575 9.99316C22.1854 9.99316 22.6945 10.4868 22.6945 11.0957C22.6942 11.7046 22.1854 12.1982 21.5575 12.1982Z" fill="#C4B192"/>
<path d="M16.5 0C7.38869 0 0 7.16479 0 16C0 24.8352 7.38869 32 16.5 32C25.6113 32 33 24.8352 33 16C33 7.16479 25.6113 0 16.5 0ZM25.9175 19.7878C25.8716 20.7659 25.7113 21.4336 25.4771 22.0181C24.9849 23.2522 23.9788 24.2278 22.7061 24.7051C22.1036 24.9321 21.4148 25.0874 20.4065 25.1321C19.3961 25.1768 19.0733 25.1875 16.5003 25.1875C13.9269 25.1875 13.6044 25.1768 12.5938 25.1321C11.5854 25.0874 10.8966 24.9321 10.2941 24.7051C9.66167 24.4744 9.08915 24.1128 8.61582 23.6453C8.13393 23.1865 7.76106 22.6311 7.52314 22.0181C7.28899 21.4338 7.12862 20.7659 7.08279 19.7881C7.03622 18.8081 7.02539 18.4951 7.02539 16C7.02539 13.5049 7.03622 13.1919 7.08254 12.2122C7.12836 11.2341 7.28849 10.5664 7.52264 9.98193C7.76056 9.3689 8.13368 8.81348 8.61582 8.35474C9.0889 7.88721 9.66167 7.52563 10.2939 7.29492C10.8966 7.06787 11.5852 6.9126 12.5938 6.86792C13.6041 6.82324 13.9269 6.8125 16.5 6.8125C19.0731 6.8125 19.3959 6.82324 20.4062 6.86816C21.4148 6.9126 22.1034 7.06787 22.7061 7.29468C23.3383 7.52539 23.9111 7.88721 24.3844 8.35474C24.8663 8.81372 25.2394 9.3689 25.4771 9.98193C25.7115 10.5664 25.8716 11.2341 25.9177 12.2122C25.9638 13.1919 25.9746 13.5049 25.9746 16C25.9746 18.4951 25.9638 18.8081 25.9175 19.7878Z" fill="#C4B192"/>
</svg>

<svg width="33" height="32" fill="none" xmlns="http://www.w3.org/2000/svg"><path d="M19.658 16c0 1.691-1.414 3.063-3.158 3.063S13.342 17.69 13.342 16s1.414-3.063 3.158-3.063S19.658 14.31 19.658 16z" fill="#C4B192"/><path d="M23.886 10.582a2.84 2.84 0 00-.709-1.057 2.944 2.944 0 00-1.09-.687c-.333-.126-.835-.275-1.758-.316-1-.044-1.3-.054-3.83-.054-2.53 0-2.829.01-3.828.053-.923.041-1.425.191-1.759.317a2.942 2.942 0 00-1.09.687 2.842 2.842 0 00-.708 1.056c-.13.324-.284.81-.326 1.707-.046.968-.056 1.259-.056 3.712 0 2.453.01 2.744.056 3.713.042.896.196 1.382.326 1.706.152.399.394.76.708 1.056.306.305.678.54 1.09.687.334.126.835.276 1.76.317.998.044 1.298.053 3.828.053s2.83-.009 3.828-.053c.924-.041 1.426-.19 1.76-.317a3.091 3.091 0 001.798-1.743c.13-.324.284-.81.326-1.706.046-.97.055-1.26.055-3.713 0-2.453-.01-2.744-.055-3.712-.042-.896-.196-1.383-.326-1.707zM16.5 20.718c-2.687 0-4.866-2.112-4.866-4.718s2.179-4.718 4.866-4.718 4.865 2.112 4.865 4.718-2.178 4.718-4.865 4.718zm5.058-8.52c-.628 0-1.137-.493-1.137-1.102 0-.61.509-1.103 1.137-1.103.627 0 1.137.494 1.137 1.103s-.51 1.102-1.137 1.102z" fill="#C4B192"/><path d="M16.5 0C7.389 0 0 7.165 0 16s7.389 16 16.5 16S33 24.835 33 16 25.611 0 16.5 0zm9.418 19.788c-.046.978-.207 1.646-.44 2.23a4.774 4.774 0 01-2.772 2.687c-.602.227-1.291.382-2.3.427-1.01.045-1.333.055-3.906.055-2.573 0-2.896-.01-3.906-.055-1.009-.045-1.697-.2-2.3-.427a4.659 4.659 0 01-1.678-1.06 4.493 4.493 0 01-1.093-1.627c-.234-.584-.394-1.252-.44-2.23-.047-.98-.058-1.293-.058-3.788s.011-2.808.058-3.788c.045-.978.205-1.646.44-2.23a4.49 4.49 0 011.093-1.627 4.657 4.657 0 011.678-1.06c.603-.227 1.291-.382 2.3-.427 1.01-.045 1.333-.056 3.906-.056 2.573 0 2.896.011 3.906.056 1.009.045 1.697.2 2.3.427a4.66 4.66 0 011.678 1.06 4.491 4.491 0 011.093 1.627c.235.584.395 1.252.44 2.23.047.98.058 1.293.058 3.788s-.011 2.808-.058 3.788z" fill="#C4B192"/></svg>
